packages/core/src/svgs/foom.svg

<svg width="24" height="24" viewBox="0 0 24 24" fill="none" xmlns="http://www.w3.org/2000/svg">
<g clip-path="url(#clip0_31_10425)">
<path d="M0 0H24V24H0V0Z" fill="#F0F3FA"/>
<path d="M7.28564 5.57129H18.8571V17.1427H7.28564V5.57129Z" fill="#FF0000"/>
<path d="M5.14282 7.28564H17.1428V18.4285H5.14282V7.28564Z" fill="#00F8FF"/>
<path d="M6 6.42871H18V17.5716H6V6.42871Z" fill="black"/>
<path d="M9 10.2856H14.1429L13.6714 10.9285H10.2857V11.9999H13.9929L13.4271 12.6428H10.2857V14.5714H9V10.2856Z" fill="#00F8FF"/>
<path d="M9.85718 9.42871H15L14.5286 10.0716H11.1429V11.143H14.85L14.2843 11.7859H11.1429V13.7144H9.85718V9.42871Z" fill="#FF0000"/>
<path d="M9.42847 9.85693H14.5713L14.0999 10.4998H10.7142V11.5712H14.4213L13.8556 12.2141H10.7142V14.1426H9.42847V9.85693Z" fill="white"/>
</g>
<defs>
<clipPath id="clip0_31_10425">
<rect width="24" height="24" fill="white"/>
</clipPath>
</defs>
</svg>

<svg xmlns="http://www.w3.org/2000/svg" width="24" height="24" fill="none" viewBox="0 0 24 24"><g clip-path="url(#a)"><path fill="#F0F3FA" d="M0 0h24v24H0z"/><path fill="red" d="M7.286 5.571h11.571v11.572H7.286z"/><path fill="#00F8FF" d="M5.143 7.286h12v11.142h-12z"/><path fill="#000" d="M6 6.429h12v11.143H6z"/><path fill="#00F8FF" d="M9 10.286h5.143l-.472.643h-3.385v1.07h3.707l-.566.644h-3.141v1.928H9z"/><path fill="red" d="M9.857 9.429H15l-.471.643h-3.386v1.071h3.707l-.566.643h-3.141v1.928H9.857z"/><path fill="#fff" d="M9.428 9.857h5.143l-.471.643h-3.386v1.071h3.707l-.565.643h-3.142v1.929H9.428z"/></g><defs><clipPath id="a"><path fill="#fff" d="M0 0h24v24H0z"/></clipPath></defs></svg>
